X: 2858
T: Barham Down
R: three-two
M: 3/2
K: Dmajor
|:A2GF E2D2A2d2|A2GF G2A2E4|A2GF E2D2A2c2|1 d2ef gfec d4:|2 d2ef gfec d2 fg||
|:a2f2d2a2f2d2|g2B2e2B2c4|d2 cB AGFE FGAF|1 B2cd cdec d2 fg:|2 B2cd cdec d4||

